X:18853
T:WINTER a favorite song. GS.003
M:6/8
L:1/8
Q:80
S:George Spencer m/s, Leeds,1831
R:Air
O:England
A:Leeds
H:1831
Z:vmp.Cherri Graebe
K:G
d ||: (de) c (Bc) d | (de) cB2 B |  A2 A (Ad) c | (c3B2) d | (de) c (
Bg) f |
 (fe) d (d^c) B |! (BA) d (ed) ^c | {c} d3 zz d | (de) B (Bc) c | (cd) A
 (AB) g |
 g2 e (eB) G | (DA) F "pause" G2 Z :||


